build/images/icons/inst.svg

<svg width="32" height="32" viewBox="0 0 32 32" fill="none" xmlns="http://www.w3.org/2000/svg">
<path d="M16.0003 12.6932C15.3463 12.6932 14.707 12.8871 14.1632 13.2504C13.6195 13.6138 13.1956 14.1302 12.9454 14.7344C12.6951 15.3386 12.6296 16.0035 12.7572 16.6449C12.8848 17.2864 13.1997 17.8756 13.6622 18.338C14.1246 18.8004 14.7138 19.1154 15.3552 19.243C15.9967 19.3706 16.6615 19.3051 17.2657 19.0548C17.8699 18.8045 18.3864 18.3807 18.7497 17.8369C19.1131 17.2931 19.307 16.6538 19.307 15.9998C19.307 15.5656 19.2215 15.1356 19.0553 14.7344C18.8891 14.3332 18.6455 13.9687 18.3385 13.6617C18.0314 13.3546 17.6669 13.1111 17.2657 12.9449C16.8645 12.7787 16.4346 12.6932 16.0003 12.6932ZM29.2403 9.4265C29.2333 8.39685 29.0437 7.3766 28.6803 6.41317C28.4127 5.70818 27.9986 5.06796 27.4654 4.53475C26.9322 4.00154 26.292 3.58746 25.587 3.31984C24.6236 2.95646 23.6033 2.76685 22.5737 2.75984C20.8537 2.6665 20.347 2.6665 16.0003 2.6665C11.6537 2.6665 11.147 2.6665 9.42699 2.75984C8.39734 2.76685 7.37709 2.95646 6.41366 3.31984C5.70867 3.58746 5.06845 4.00154 4.53524 4.53475C4.00203 5.06796 3.58795 5.70818 3.32033 6.41317C2.95694 7.3766 2.76734 8.39685 2.76033 9.4265C2.66699 11.1465 2.66699 11.6532 2.66699 15.9998C2.66699 20.3465 2.66699 20.8532 2.76033 22.5732C2.77468 23.6065 2.96402 24.6298 3.32033 25.5998C3.58676 26.3016 4.0005 26.9381 4.53366 27.4665C5.06458 28.0029 5.70618 28.417 6.41366 28.6798C7.37709 29.0432 8.39734 29.2328 9.42699 29.2398C11.147 29.3332 11.6537 29.3332 16.0003 29.3332C20.347 29.3332 20.8537 29.3332 22.5737 29.2398C23.6033 29.2328 24.6236 29.0432 25.587 28.6798C26.2945 28.417 26.9361 28.0029 27.467 27.4665C28.0002 26.9381 28.4139 26.3016 28.6803 25.5998C29.0434 24.6317 29.2329 23.6071 29.2403 22.5732C29.3337 20.8532 29.3337 20.3465 29.3337 15.9998C29.3337 11.6532 29.3337 11.1465 29.2403 9.4265ZM25.8537 20.0932C25.8109 20.916 25.6353 21.7264 25.3337 22.4932C25.0748 23.1328 24.69 23.7138 24.2021 24.2016C23.7142 24.6895 23.1332 25.0743 22.4937 25.3332C21.7197 25.618 20.9047 25.7756 20.0803 25.7998C19.027 25.7998 18.747 25.7998 16.0003 25.7998C13.2537 25.7998 12.9737 25.7998 11.9203 25.7998C11.096 25.7756 10.281 25.618 9.50699 25.3332C8.8458 25.0875 8.24869 24.6955 7.76033 24.1865C7.27721 23.7082 6.90412 23.1303 6.66699 22.4932C6.38107 21.72 6.2278 20.9041 6.21366 20.0798C6.21366 19.0265 6.21366 18.7465 6.21366 15.9998C6.21366 13.2532 6.21366 12.9732 6.21366 11.9198C6.2278 11.0956 6.38107 10.2797 6.66699 9.5065C6.9127 8.84531 7.30469 8.24821 7.81366 7.75984C8.2941 7.27934 8.87134 6.90663 9.50699 6.6665C10.281 6.38171 11.096 6.22412 11.9203 6.19984C12.9737 6.19984 13.2537 6.19984 16.0003 6.19984C18.747 6.19984 19.027 6.19984 20.0803 6.19984C20.9047 6.22412 21.7197 6.38171 22.4937 6.6665C23.1549 6.91221 23.752 7.3042 24.2403 7.81317C24.7234 8.2915 25.0965 8.86935 25.3337 9.5065C25.6185 10.2805 25.776 11.0955 25.8003 11.9198C25.8003 12.9732 25.8003 13.2532 25.8003 15.9998C25.8003 18.7465 25.8937 19.0265 25.8537 20.0798V20.0932ZM23.7203 10.1732C23.5616 9.74248 23.3113 9.35136 22.9867 9.02679C22.6621 8.70222 22.271 8.45192 21.8403 8.29317C21.249 8.08818 20.6261 7.98889 20.0003 7.99984C18.9603 7.99984 18.667 7.99984 16.0003 7.99984C13.3337 7.99984 13.0403 7.99984 12.0003 7.99984C11.3713 8.00599 10.7484 8.12335 10.1603 8.3465C9.73623 8.49805 9.34925 8.73812 9.0251 9.05077C8.70096 9.36342 8.44707 9.74149 8.28033 10.1598C8.08669 10.7537 7.9921 11.3753 8.00033 11.9998C8.00033 13.0398 8.00033 13.3332 8.00033 15.9998C8.00033 18.6665 8.00033 18.9598 8.00033 19.9998C8.01354 20.6281 8.13068 21.2498 8.34699 21.8398C8.50574 22.2705 8.75604 22.6616 9.08061 22.9862C9.40518 23.3108 9.7963 23.5611 10.227 23.7198C10.7959 23.9291 11.3945 24.0461 12.0003 24.0665C13.0403 24.0665 13.3337 24.0665 16.0003 24.0665C18.667 24.0665 18.9603 24.0665 20.0003 24.0665C20.6293 24.0604 21.2522 23.943 21.8403 23.7198C22.271 23.5611 22.6621 23.3108 22.9867 22.9862C23.3113 22.6616 23.5616 22.2705 23.7203 21.8398C23.9435 21.2517 24.0608 20.6288 24.067 19.9998C24.067 18.9598 24.067 18.6665 24.067 15.9998C24.067 13.3332 24.067 13.0398 24.067 11.9998C24.0674 11.3702 23.9498 10.7461 23.7203 10.1598V10.1732ZM16.0003 21.0932C15.3321 21.0932 14.6704 20.9613 14.0532 20.7052C13.436 20.4491 12.8754 20.0737 12.4035 19.6006C11.9316 19.1274 11.5577 18.5658 11.3032 17.948C11.0487 17.3301 10.9186 16.6681 10.9203 15.9998C10.9203 14.9919 11.2194 14.0066 11.7796 13.1688C12.3399 12.3309 13.1362 11.6781 14.0676 11.2929C14.9991 10.9078 16.0239 10.8078 17.0122 11.0054C18.0006 11.203 18.9081 11.6894 19.6199 12.403C20.3317 13.1167 20.8157 14.0255 21.0107 15.0144C21.2058 16.0033 21.103 17.0278 20.7154 17.9582C20.3279 18.8887 19.673 19.6832 18.8337 20.2413C17.9943 20.7993 17.0083 21.0958 16.0003 21.0932ZM21.3337 11.9065C21.0389 11.8753 20.7661 11.7361 20.5679 11.5158C20.3697 11.2955 20.26 11.0096 20.26 10.7132C20.26 10.4168 20.3697 10.1309 20.5679 9.91054C20.7661 9.69021 21.0389 9.55104 21.3337 9.51984C21.6284 9.55104 21.9012 9.69021 22.0994 9.91054C22.2977 10.1309 22.4073 10.4168 22.4073 10.7132C22.4073 11.0096 22.2977 11.2955 22.0994 11.5158C21.9012 11.7361 21.6284 11.8753 21.3337 11.9065Z"/>
</svg>

<svg width="32" height="32" fill="none" xmlns="http://www.w3.org/2000/svg"><path d="M16 12.693a3.307 3.307 0 100 6.614 3.307 3.307 0 000-6.614zm13.24-3.266a8.706 8.706 0 00-.56-3.014 5.333 5.333 0 00-3.093-3.093 8.707 8.707 0 00-3.013-.56c-1.72-.093-2.227-.093-6.574-.093-4.346 0-4.853 0-6.573.093a8.707 8.707 0 00-3.013.56A5.333 5.333 0 003.32 6.413a8.706 8.706 0 00-.56 3.014c-.093 1.72-.093 2.226-.093 6.573 0 4.346 0 4.853.093 6.573a9.146 9.146 0 00.56 3.027c.267.702.68 1.338 1.214 1.866a5.17 5.17 0 001.88 1.214 8.706 8.706 0 003.013.56c1.72.093 2.227.093 6.573.093 4.347 0 4.854 0 6.574-.093a8.706 8.706 0 003.013-.56 5.186 5.186 0 001.88-1.213A5.252 5.252 0 0028.68 25.6a8.798 8.798 0 00.56-3.027c.094-1.72.094-2.227.094-6.573 0-4.347 0-4.854-.094-6.573zm-3.386 10.666a7.641 7.641 0 01-.52 2.4 5.146 5.146 0 01-2.84 2.84 7.638 7.638 0 01-2.414.467h-8.16a7.638 7.638 0 01-2.413-.467 4.68 4.68 0 01-1.747-1.146 4.68 4.68 0 01-1.093-1.694 7.32 7.32 0 01-.453-2.413v-8.16a7.32 7.32 0 01.453-2.413A4.68 4.68 0 017.814 7.76a4.787 4.787 0 011.693-1.093A7.64 7.64 0 0111.92 6.2h8.16a7.64 7.64 0 012.414.466 4.68 4.68 0 011.746 1.147 4.681 4.681 0 011.094 1.694 7.64 7.64 0 01.466 2.413V16c0 2.747.094 3.026.054 4.08v.013zm-2.134-9.92a3.172 3.172 0 00-1.88-1.88A5.333 5.333 0 0020 8h-8a5.333 5.333 0 00-1.84.347 3.174 3.174 0 00-1.88 1.813A5.694 5.694 0 008 12v8c.014.628.13 1.25.347 1.84a3.174 3.174 0 001.88 1.88 5.69 5.69 0 001.773.347h8a5.331 5.331 0 001.84-.347 3.172 3.172 0 001.88-1.88c.224-.588.34-1.211.347-1.84v-8a5.04 5.04 0 00-.347-1.84v.013zM16 21.093A5.08 5.08 0 0110.92 16 5.093 5.093 0 1116 21.093zm5.334-9.187a1.2 1.2 0 010-2.386 1.2 1.2 0 010 2.386z"/></svg>
